X: 40893
T: Trigger's Lament
R: jig
M: 6/8
K: Cdorian
|:CDE E2 C|DEB B2 c|AFC C2 A|FGE D2 C|
CDE E2 C|DEB B2 B|AFC AFC|1 E3 D2 B,:|2 (E3E)FG]
|:[M:9/8] cGE E2 c Gce|dBG G2 d z BG|AFC C2 A FGC|E2 C CDE D2 C|
cGE E2 c Gce|dBG G2 d z BG|FAB Bcf e2 c|EGc d/e/fde2 z:|

